svg/UnitedNations-Flags/flag-ge.svg

<?xml version="1.0" encoding="UTF-8" standalone="no"?>
<svg height="256" id="svg2" inkscape:output_extension="org.inkscape.output.svg.inkscape" inkscape:version="0.46" sodipodi:docname="Flag_of_Georgia.svg" sodipodi:version="0.32" version="1.0" viewBox="-150 -100 300 200" width="256" xmlns="http://www.w3.org/2000/svg" xmlns:cc="http://creativecommons.org/ns#" xmlns:dc="http://purl.org/dc/elements/1.1/" xmlns:inkscape="http://www.inkscape.org/namespaces/inkscape" xmlns:rdf="http://www.w3.org/1999/02/22-rdf-syntax-ns#" xmlns:sodipodi="http://sodipodi.sourceforge.net/DTD/sodipodi-0.dtd" xmlns:svg="http://www.w3.org/2000/svg" xmlns:xlink="http://www.w3.org/1999/xlink">
  <metadata>
    <rdf:RDF xmlns:cc="http://web.resource.org/cc/" xmlns:dc="http://purl.org/dc/elements/1.1/" xmlns:rdf="http://www.w3.org/1999/02/22-rdf-syntax-ns#">
      <cc:Work rdf:about="">
        <dc:title></dc:title>
        <dc:description></dc:description>
        <dc:subject>
          <rdf:Bag>
            <rdf:li>unsorted</rdf:li>
          </rdf:Bag>
        </dc:subject>
        <dc:publisher>
          <cc:Agent rdf:about="http://www.openclipart.org/">
            <dc:title>Open Clip Art Library, Source: Wikimedia Commons, Source: Wikimedia Commons, Source: Wikimedia Commons, Source: Wikimedia Commons</dc:title>
          </cc:Agent>
        </dc:publisher>
        <dc:creator>
          <cc:Agent>
            <dc:title></dc:title>
          </cc:Agent>
        </dc:creator>
        <dc:rights>
          <cc:Agent>
            <dc:title></dc:title>
          </cc:Agent>
        </dc:rights>
        <dc:date></dc:date>
        <dc:format>image/svg+xml</dc:format>
        <dc:type rdf:resource="http://purl.org/dc/dcmitype/StillImage"/>
        <cc:license rdf:resource="http://en.wikipedia.org/wiki/Public_domain"/>
        <dc:language>en</dc:language>
      </cc:Work>
    </rdf:RDF>
  </metadata>
  <sodipodi:namedview bordercolor="#666666" borderopacity="1.0" gridtolerance="10.0" guidetolerance="10.0" id="base" inkscape:current-layer="svg2" inkscape:cx="450" inkscape:cy="300" inkscape:pageopacity="0.0" inkscape:pageshadow="2" inkscape:window-height="674" inkscape:window-width="640" inkscape:window-x="26" inkscape:window-y="164" inkscape:zoom="0.62111111" objecttolerance="10.0" pagecolor="#ffffff" showgrid="false"/>
  <defs id="defs4">
    <inkscape:perspective id="perspective31" inkscape:persp3d-origin="450 : 200 : 1" inkscape:vp_x="0 : 300 : 1" inkscape:vp_y="0 : 1000 : 0" inkscape:vp_z="900 : 300 : 1" sodipodi:type="inkscape:persp3d"/>
    <g id="smallcross">
      <clipPath id="vclip">
        <path d="M -109,104 C -51.562386,104 -5,57.437614 -5,0 C -5,-57.437614 -51.562386,-104 -109,-104 L 109,-104 C 51.562386,-104 5,-57.437614 5,-1.2736327e-14 C 5,57.437614 51.562386,104 109,104 L -109,104 z" id="path8"/>
      </clipPath>
      <path clip-path="url(#vclip)" d="M -55,74 C -55,43.624339 -30.375661,19 -1.0103336e-14,19 C 30.375661,19 55,43.624339 55,74 L 55,-74 C 55,-43.624339 30.375661,-19 3.3677787e-15,-19 C -30.375661,-19 -55,-43.624339 -55,-74 L -55,74 z" id="varm"/>
      <use height="200" id="use11" transform="matrix(0,1,-1,0,0,0)" width="300" x="0" xlink:href="#varm" y="0"/>
    </g>
  </defs>
  <rect height="200" id="rect13" style="fill:#ffffff" width="300" x="-150" y="-100"/>
  <g id="bigcross" style="fill:#ff0000">
    <rect height="200" id="rect16" width="40" x="-20" y="-100"/>
    <rect height="40" id="rect18" width="300" x="-150" y="-20"/>
  </g>
  <use height="200" id="use20" style="fill:#ff0000" transform="translate(-85,-60)" width="300" x="0" xlink:href="#smallcross" y="0"/>
  <use height="200" id="use22" style="fill:#ff0000" transform="translate(85,-60)" width="300" x="0" xlink:href="#smallcross" y="0"/>
  <use height="200" id="use24" style="fill:#ff0000" transform="translate(-85,60)" width="300" x="0" xlink:href="#smallcross" y="0"/>
  <use height="200" id="use26" style="fill:#ff0000" transform="translate(85,60)" width="300" x="0" xlink:href="#smallcross" y="0"/>
</svg>

<svg height="256" viewBox="-150 -100 300 200" width="256" xmlns="http://www.w3.org/2000/svg" xmlns:xlink="http://www.w3.org/1999/xlink"><defs><g id="0"><path clip-path="url(#1)" d="m-55 74c0-30.376 24.624-55 55-55 30.376 0 55 24.624 55 55v-148c0 30.376-24.624 55-55 55-30.376 0-55-24.624-55-55v148" id="2"/><use height="200" transform="matrix(0 1-1 0 0 0)" width="300" xlink:href="#2"/></g><clipPath id="1"><path d="m-109 104c57.44 0 104-46.562 104-104 0-57.44-46.562-104-104-104h218c-57.44 0-104 46.562-104 104 0 57.44 46.562 104 104 104h-218"/></clipPath></defs><path fill="#fff" d="m-150-100h300v200h-300z"/><g fill="#f00"><path d="m-20-100h40v200h-40z"/><path d="m-150-20h300v40h-300z"/></g><g fill="#f00"><use height="200" transform="translate(-85-60)" width="300" xlink:href="#0"/><use height="200" transform="translate(85-60)" width="300" xlink:href="#0"/><use height="200" transform="translate(-85 60)" width="300" xlink:href="#0"/><use height="200" transform="translate(85 60)" width="300" xlink:href="#0"/></g></svg>
